X:1
T:Tu es Petrus - Palestrina
T:James Gibb editions
T:#
%%score { 1 | 2 } 3 4 { 5 | 6 }
L:1/8
Q:1/4=90
M:4/4
K:G
V:1 treble nm="Soprano I" snm="S"
V:2 treble 
V:3 treble nm="Alto" snm="A"
V:4 treble-8 nm="Tenor" snm="T"
V:5 bass nm="Bass I" snm="B"
V:6 bass 
V:1
"^Tu es Petrus""^G. P. da Palestrina\n(1526 - 1594)" (B6 AG | A2) B2 c4 | B6 A2 | B2 c2 d4 | %4
w: Tu * *|* es Pe-|trus, et|su- per hanc|
 (c3 B A2 G2- | G2 F2) G4 | z8 | z8 | z8 |[M:4/4] z8 | z8 | z4 z2 d2 | d2 e2 =f4 | (e3 d c2 B2 | %14
w: pe\- * * *|* * tram,||||||et|su- per hanc|pe\- * * *|
 A4) B2 B2 | c2 d2 c4 | B2 B2 (cde=f | g2) g2 c4- | c4 d4 | G4 z4 | z8 | z8 | z8 | z4 z2 c2 | %24
w: * tram ae-|di- fi- ca-|bo ec- cle\- * * *|* si- am|* me-|am,||||ae-|
 c2 c2 c4 | c4 z2 G2- | G2 g3 =f e2 | d4 c4 | z2 A2 c3 d | e2 (g=f ed c2- | c2 BA B4) | c4 z2 G2 | %32
w: di- fi- ca-|bo ec\-|* cle- si- am|me- am,|ec- cle- si-|am me\- * * * *||am: et|
 (A2 B2 c2) c2 | (BcdB c3 B | A2 G4) F2 | G4 z2 G2 | A2 B2 c2 c2 | B2 c2 (c2 =FG | AB) c2 d2 d2 | %39
w: por\- * * tae|in\- * * * * *|* * fe-|ri, et|por- tae in- fe-|ri, et por\- * *|* * tae in- fe-|
"^-_" G4 z4 | z4 z2 e2 | d2 e2 =f4 | e4 z4 | z8 |"^~\""^i" z8 | z8 | z2 e2 d2 e2 | =f4 e2 c2 | %48
w: ri|non|prae- va- le-|bunt,||||non prae- va-|le- bunt ad-|
 d2 e2 (=fedc | B2 c4 B2) | c8 | z8 | z4 z2 G2 | B6 B2 | c4 B2 d2- | d2 d2 e4 | d2 B2 (cBcd | %57
w: ver- sus e\- * * *||am:||et|ti- bi|da- bo cla\-|* ves re-|gni cae- lo\- * * *|
 e=f g3 ^f/e/ f2) | g8 | z8 | z8 | z4 z2 G2 | d4 (B3 c | d2 (e4 dc) | B4 z2 A2 | d2 d2 B2 c2) | %66
w: |rum,|||et|ti- bi *|* da\- * *|bo, et|ti- bi da\- *|
 d8 | z8 | z2 d2 e4- | e2 e2 =f4 | e2 c4 c2 | c4 c4 | z8 | z4 z2 e2- | e2 e2 =f4 | d2 e2 (=f2 e2- | %76
w: bo,||et ti\-|* bi da-|bo cla- ves|re- gni,||cla\-|* ves re-|gni cae- lo\- *|
 ed Bc) d4 | z2 B4 B2 | c4 B2 G2 | (ABcd e=fge | f2 g4 f2) | %81
w: * * * * rum,|cla- ves|re- gni cae-|lo\- * * * * * * *||
[Q:1/4=88] g4[Q:1/4=86] z2[Q:1/4=84] d2 | %82
w: rum, cae-|
[Q:1/4=83] (g[Q:1/4=82]=f[Q:1/4=81]e[Q:1/4=81]d[Q:1/4=79] e4) |[Q:1/4=78] d8 |] %84
w: lo\- * * * *|rum.|
V:2
 d8 | d4 e4 | d4 d4 | d2 e2 =f4 | (e3 d c2 B2 | A4) B4 | z8 | z8 | z8 |[M:4/4] z8 | z8 | z4 z2 B2 | %12
w: Tu|es Pe-|trus, et|su- per hanc|pe\- * * *|* tram,||||||et|
 B2 B2 c4 | (c3 d e4 | d4) d4 | z8 | z8 | z8 | z8 | z2 e2 e2 d2 | e4 d2 d2 | (e3 d c2) d2 | %22
w: su- per hanc|pe\- * *|* tram|||||ae- di- fi-|ca- bo ec-|cle\- * * si-|
 e4 =f4- | f4 e4 | z8 | z2 e2 e2 d2 | e4 c4 | z2 d2 e2 e2 | =f2 (=FG AB c2- | cde=f g4- | g8) | %31
w: am me\-|* am,||ae- di- fi-|ca- bo|ec- cle- si-|am me\- * * * *|||
 e8 | z8 | z4 z2 G2 | (A2 B2 c2) c2 | (BcdB c3 B | A2 G4) F2 | G4 z2 c2 | d2 e2 =f2 f2 | %39
w: am:||et|por\- * * tae|in\- * * * * *|* * fe-|ri, et|por- tae in- fe-|
 e2 e2 d2 e2 | =f4 e4 | z8 | z2 e2 d2 e2 | =f4 e2 c2 | d2 e2 (=fedc | B2 c4 B2) | c4 z4 | z8 | z8 | %49
w: ri non prae- va-|le- bunt,||non prae- va-|le- bunt ad-|ver- sus e\- * * *||am;|||
 z8 | z2 c2 e4- | e2 e2 =f4 | e8 | z8 | z4 z2 B2- | B2 B2 c4 | B2 G2 (AGAB | c"^,"B BA/G/ A4) | %58
w: |et ti-|* bi da-|bo||cla\-|* ves re-|gni cae- lo\- * * *||
 G8- | G8 | z8 | z8 | z2 G2 d4 | B4 c4 | d8 | z8 | z2 A2 B4- | B2 B2 c4 | B4 z2 G2 | %69
w: rum,||||et ti-|bi da-|bo,||et ti\-|* bi da-|bo, et|
 c2 c2 (A2 B2) | c2 e4 e2 | =f4 e4 | d2 (c3 de=f | g4) e2 c2- | c2 c2 c4 | B2 G2 (ABcd | %76
w: ti- bi da\- *|bo cla- ves|re- gni|cae- lo\- * * *|* rum, cla\-|* ves re-|gni cae- lo\- * * *|
 e=f g4 ^f2) | g2 d4 d2 | e4 d2 e2 | (=f4 e4) | d8 | z2 G2 (g3 =f | edcB c4) | B8 |] %84
w: |rum, cla- ves|re- gni cae-|lo\- *|rum,|cae- lo\- *||rum.|
V:3
 (G6 FE | F2) G2 C4 | G6 F2 | G2 E2 (DE=FG | A2 E2 =F2 G2) | D4 G,4 | z8 | z8 | z8 |[M:4/4] z8 | %10
w: Tu * *|* es Pe-|trus, et|su- per hanc * * *||pe- tram,|||||
 z8 | z4 z2 G2 | G2 G2 A4 | (G3 =F EC G2- | GF/E/ F2) G2 G2 | G2 G2 G4 | G2 G2 (G3 =F | %17
w: |et|su- per hanc|pe\- * * * *|* * * * tram ae-|di- fi- ca-|bo ec- cle\- *|
 E2) D2 A4- | A2 (G2 =F4) | E4 z2 G2- | G2 c4 B2 | c4 G2 G2 | (c3 B A2) G2 | =F2 D2 G2 E2 | %24
w: * si- am|* me\- *|am, ae\-|* di- fi-|ca- bo ec-|cle\- * * si-|am me- am, ae-|
 =F2 G2 A4 | G8- | G8 | z4 z2 A2 | c3 B A4 | G8- | G8 | G8 | z8 | z2 D2 E4- | E2 D2 E2 C2 | D4 z4 | %36
w: di- fi- ca-|bo||ec-|cle- si- am|me\-||am:||et por\-|* tae in- fe-|ri,|
 z8 | z2 G2 A4- | A2 G2 =F2 D2 | E2 G2 G2 G2 | A4 G4 | z8 | z2 G2 G2 G2 | A4 G2 A2 | B2 B2 (cB A2 | %45
w: |et por\-|* tae in- fe-|ri non prae- va-|le- bunt,||non prae- va-|le- bunt ad-|ver- sus e\- * *|
 G2 F2 G4) | E2 G2 G2 E2 | c4 c2 G2 | B2 B2 (cB A2 | G2 F2 G4) | E4 z2 G2 | c2 c2 (A2 B2 | %52
w: |am, non prae- va-|le- bunt ad-|ver- sus e\- * *||am: et|ti- bi da\- *|
 c2 BA) G4 | z2 G2 G2 G2 | E2 =F2 G4 | G4 C4 | G2 G2 (=F3 E/D/ | CD E2 D4) | G4 z4 | z2 C2 D2 E2 | %60
w: * * * bo,|et ti- bi|da- bo cla-|ves re-|gni cae- lo\- * *||rum,|et ti- bi|
 (=F4 E2) C2 | D4 B,4 | z2 D4 G2- | G2 G2 A4 | G2 G2 A4- | A2 =F2 G4 | A4 z2 D2 | G2 G2 (E2 =F2) | %68
w: da\- * bo|cla- ves,|et ti\-|* bi da-|bo, et ti\-|* bi da-|bo, et|ti- bi da\- *|
 G4 z4 | z8 | z2 G4 G2 | A4 G2 E2 | (A6 G2- | G=F D2) E2 G2- | G2 G2 A4 | G2 B2 (c3 B | A2 G2 A4) | %77
w: bo||cla- ves|re- gni cae-|lo\- *|* * * rum, cla\-|* ves re-|gni cae- lo\- *||
 G2 G4 G2 | G4 G4 | z2 A2 (c3 B | A2 G2 A4) | G8- | G8 | G8 |] %84
w: rum, cla- ves|re- gni|cae- lo\- *||rum.|||
V:4
 z8 | z8 | z8 | z8 | z8 | z8 | d8 | d4 e4 | d4 d4 |[M:4/4][K:treble-8] d2 e2 =f4 | (e3 d c2 B2 | %11
w: ||||||Tu|es Pe-|trus, et|su- per hanc|pe\- * * *|
 A4) B4 | z8 | z8 | z4 z2 d2 | e2 d2 e4 | d2 d2 (edcd | e=f g2) f2 e2 | (AB c3 B/A/ B2) | %19
w: * tram,|||ae-|di- fi- ca-|bo ec- cle\- * * *|* * * si- am|me\- * * * * *|
 c2 g2 g2 g2 | e4 g2 g2 | (g3 =f e2) d2 | c2 (A3 B c2- | c2 B2) c2 g2 | a2 g2 =f4 | e4 z2 d2 | %26
w: am, ae- di- fi-|ca- bo ec-|cle\- * * si-|am me\- * *|* * am, ae-|di- fi- ca-|bo ec-|
 (cde=f g2) c2 | d4 z2 A2- | A2 =f4 f2 | e8 | d8 | c4 z2 e2 | c2 d2 e2 f2 | g8 | z8 | z2 d2 e4- | %36
w: cle\- * * * * si-|am, ec\-|* cle- si-|am|me-|am: et|por- tae in- fe-|ri,||et por\-|
 e2 d2 e2 c2 | d2 e2 (cBAG | =F2) G2 A2 B2 | c4 z4 | z4 z2 g2 | g2 g2 a4 | g4 z4 | z4 z2 e2 | %44
w: * tae in- fe-|ri, et por\- * * *|* tae in- fe-|ri|non|prae- va- le-|bunt|ad-|
 g2 g2 (ag=fe | d2 c2 d4) | c2 c2 G2 g2 | a4 g2 e2 | g2 g2 (ag=fe | d2 c2 d4) | c4 z2 e2 | %51
w: ver- sus e\- * * *||am, non prae- va-|le- bunt ad-|ver- sus e\- * * *||am: et|
 g2 a2 =f4 | g4 e4 | (d3 c B2) G2 | (c2 A2) B4 | z8 | z8 | z8 | z2 d4 d2 | e4 d2 B2 | %60
w: ti- bi da-|bo, et|ti\- * * bi|da\- * bo||||cla- ves|re- gni cae-|
 (cBcd e=f g2- | g2 f2) g4- | g4 z4 | z8 | z2 d2 (=f2 de | =fg) a4 (g2- | g2 f2) g4 | z8 | %68
w: lo\- * * * * * *|* * rum,|||et ti\- * *|* * bi da\-|* * bo,||
 z2 g2 g4- | g2 a2 =f4 | g2 e4 e2 | c4 e2 g2 | (=f6 e2 | d4) c4 | z8 | z8 | z8 | z2 d4 G2- | %78
w: et ti\-|* bi da-|bo cla- ves|re- gni cae-|lo\- *|* rum,||||cla- ves|
 G2 c2 d2 B2 | c4 c4- | c2 B2 A2 d2- | dB e2 (d4 | e4 c4) | d8 |] %84
w: * re- gni cae-|lo- rum,|* cla- ves re\-|* gni cae- lo\-||rum.|
V:5
 z8 | z8 | z8 | z8 | z8 | z8 | (B,6 A,G, | A,2) B,2 C4 | B,6 A,2 |[M:4/4] B,2 C2 D4 | %10
w: ||||||Tu * *|* es Pe-|trus, et|su- per hanc|
 (C3 B, A,2 G,2- | G,2 F,2) G,2 G,2 | G,2 G,2 (=F,G,A,B, | C8) | D4 G,4 | z8 | z8 | z8 | z8 | %19
w: pe\- * * *|* * tram, et|su- per hanc * * *||pe- tram|||||
 z2 G,2 C2 B,2 | C4 G,2 G,2 | C6 B,2 | (A,3 G, =F,2 E,2) | D,4 C,4 | z8 | z2 G,2 C2 B,2 | C8 | %27
w: ae- di- fi-|ca- bo ec-|cle- si-|am * * *|me- am,||ae- di- fi-|ca-|
 G,2 G,2 C3 B, | A,4 =F,G,A,B, | C4 G,4- | G,4 z4 | z2 G,2 C4- | C2 B,2 A,2 A,2 | G,4 z4 | z8 | %35
w: bo ec- cle- si-|am me\- * * *|* am:||et por\-|* tae in- fe-|ri,||
 z2 G,2 C4- | C2 B,2 A,2 A,2 | G,4 z4 | z8 | z2 C2 B,2 C2 | =F,4 C4 | z8 | z2 C2 B,2 C2 | %43
w: et por\-|* tae in- fe-|ri,||non prae- va-|le- bunt,||non prae- va-|
 =F,4 C2 A,2 | G,4 =F,4 | (G,2 A,2 G,4) | C,4 z4 | z8 | z8 | z8 | z2 G,2 C4- | C2 C2 D4 | C8 | %53
w: le- bunt ad-|ver- sus|e\- * *|am:||||et ti\-|* bi da-|bo,|
 z2 B,2 D2 D2 | (C4 DCB,A,) | G,4 z4 | z8 | z8 | z2 B,4 B,2 | C4 B,2 G,2 | (A,G,A,B, CB,A,G, | %61
w: et ti- bi|da\- * * * *|bo|||cla- ves|re- g- ni~cae-|lo\- * * * * * * *|
 A,4) G,4 | z8 | z8 | z2 G,2 D4- | D2 D2 E4 | D4 z2 B,2 | D2 E2 C4 | D2 G,2 C4- | C2 C2 D4 | %70
w: * rum.|||et ti\-|* bi da-|bo, et|ti- bi da-|bo, et ti\-|* bi da-|
 C2 C4 C2 | A,4 C2 C2 | (=F,G,A,B, C4) | G,4 z2 C2- | C2 C2 =F,4 | G,2 G,2 (=F,G,A,B, | CD E2 D4) | %77
w: bo cla- ves|re- gni cae-|lo\- * * * *|rum, cla\-|* ves re-|gni cae- lo\- * * *||
 G,2 B,4 D2 | C2 G,4 B,2 | A,4 G,4 | z2 (D3 C A,2 | B,2) (C4 B,2 | C4 A,4) | B,8 |] %84
w: rum, cla- ves|re- gni cae-|lo- rum,|cae\- * *|* lo\- *||rum.|
V:6
 z8 | z8 | z8 | z8 | z8 | z8 | (G,6 F,E, | F,2) G,2 C,4 | G,6 F,2 |[M:4/4] G,2 E,2 (D,E,=F,G, | %10
w: ||||||Tu * *|* es Pe-|trus, et|su- per hanc * * *|
 A,2 E,2 =F,2 G,2) | D,4 G,4 | z8 | z8 | z4 z2 G,2 | C2 B,2 C4 | G,2 G,2 C4- | C2 B,2 (A,3 G, | %18
w: |pe- tram,|||ae-|di- fi- ca-|bo ec- cle\-|* si- am *|
 =F,2) (E,2 D,4) | C,4 z4 | z8 | z8 | z8 | z4 z2 C,2 | =F,2 E,2 F,4 | C,4 z4 | z2 C,4 C2- | %27
w: * me\- *|am,||||ae-|di- fi- ca-|bo|ec- cle\-|
 C2 B,2 A,3 G, | (=F,8 | C,3 D, E,3 =F, | G,8) | C,8 | z8 | z2 G,2 C4- | C2 B,2 A,2 A,2 | G,4 z4 | %36
w: * si- am *||me\- * * *||am:||et por\-|* tae in- fe-|ri,|
 z8 | z2 C,2 =F,4- | F,2 E,2 D,2 D,2 | C,4 z4 | z4 z2 C2 | B,2 C2 =F,4 | C,4 z4 | z8 | z8 | z8 | %46
w: |et por\-|* tae in- fe-|ri|non|prae- va- le-|bunt,||||
 z2 C2 B,2 C2 | =F,4 C,2 C,2 | G,2 G,2 (=F,4 | G,2 A,2 G,4) | C,8 | z8 | z4 C,4 | G,6 G,2 | %54
w: non prae- va-|le- bunt ad|ver- sus e\-||am:||et|ti- bi|
 A,4 G,4 | z8 | z8 | z8 | z2 G,4 G,2 | C,4 G,2 G,2 | (=F,3 E,/D,/ C,D, E,2 | D,4) G,4- | G,8 | z8 | %64
w: da- bo||||cla- ves|re- gni cae-|lo\- * * * * *|* rum,|||
 z8 | z8 | z2 D,2 G,4- | G,2 G,2 A,4 | G,4 z4 | z8 | z2 C,4 C,2 | =F,4 C,2 C,2 | %72
w: ||et ti\-|* bi da-|bo||cla- ves|re- gni cae-|
 (D,E,=F,G, A,B, C2- | C2 B,2) C4 | z8 | z8 | z8 | z2 G,4 G,2 | C,4 G,2 G,2 | (=F,4 C,4) | D,8 | %81
w: lo\- * * * * * *|* * rum,||||cla- ves|re- gni cae-|lo\- *|rum,|
 G,8 | C,8 | G,8 |] %84
w: cae-|lo-|rum.|

